X: 5511
T: Burke Street March, The
R: waltz
M: 3/4
K: Amajor
A/A/|AG F2 E2|AB c2 A2|ce dc BA|GF E2- EE|
Ac F2 E2|AB cA ce|fa ec Bc|AA A2- A||
A|cd e2 cA|cd e2 cA|ce dc BA|GF E2- EE|
Ac F2 E2|AB cA ce|fa ec Bc|AA A2- A||

